X:1
T:Title
%%score { ( 1 4 ) | ( 2 3 ) }
L:1/8
Q:1/4=100
M:6/8
K:Eb
V:1 treble nm="Grand Piano"
V:4 treble 
V:2 bass 
V:3 bass 
V:1
 [GB]3 [EG]AB | [Ac]6 | [FA]3 [DF]GA | [GB]6 | [Bd]3- [Bd]cB | [Ac]3- [Ac]BA | [GB]3- [GB]AG | %7
w: C.~C.~Case * * *|||||||
 [DF]6 | [GB]3 [EG]AB | [Ac]6 | [FA]3 [DF]GA | [GB]6 | [Ge]3- [Ge]de | [Af]2 [ce] [Bd]2 c | %14
w: |||||||
 [GB]2 [Ac] [FA]2 [GB] | [EG]3 [GB]3 | [Ge]3- [Ge]de | [Af]2 [ce] [Bd]2 c | [GB]2 [Ac] [Fd]2 [Af] | %19
w: |||||
 [Ge]6 | [GB]3- [GB]cB | [FA]6 | [Ac]3- [Ac]dc | [GB]6 | .[ce]6 | [df]2 [ce] [DBd]2 [EAc] | %26
w: |||||||
 [EGB]2 [Ac] [FA]2 [GB] | [EG]6 | [GB]3- [GB]cB | [FA]6 | [Ac]3- [Ac]dc | [GB]6 | .[ce]6 | .f3 z3 | %34
w: ||||||||
 [EGB]2 [Ac] [Fd]2 [Af] | [Ge]6 |] %36
w: ||
V:2
 E,,G,,B,, z[K:treble] FG | A,,C,E, A,3 | z3 B,3[K:treble] | E,,G,,B,, E,3 | z3 B,3[K:treble] | %5
 z3 B,3[K:treble] | z3 B,3[K:treble] | B,,D,F, B,3 | E,,G,,B,, z[K:treble] FG | A,,C,E, A,3 | %10
 z3 B,3[K:treble] | E,,G,,B,, E,3 | E,,G,,B,, z[K:treble] FG | z3 A,3 | B,,E,B, B,,F,B, | %15
 E,,G,,B,, E,3 | E,,G,,B,, z[K:treble] FG | z3 A,3 | B,,E,B, B,,F,B, | E,,G,,B,, E,3 | %20
 E,,G,,B,, z[K:treble] AG | B,,B,,B,, B,,3 | z3 B,3[K:treble] | E,E,E, E,3 | %24
 [A,,A,]A,,A,, A,,[A,,A,][A,,A,] | .A,3 z3 | B,,2 [B,,B,] [B,,B,]2 [B,,B,] | [E,B,]2 E, E,3 | %28
 E,,G,,B,, z[K:treble] AG | B,,B,,B,, B,,3 | z3 B,3[K:treble] | E,E,E, E,3 | %32
 [A,,A,]A,,A,, A,,[A,,A,][A,,A,] | [A,,A,]2 A,, A,,2 A,, | B,,2 [B,,B,] [B,,B,]2 [B,,B,] | %35
 [E,B,]2 E, E,3 |] %36
V:3
 z3 E,3[K:treble] | x6 | B,,D,F, z[K:treble] EF | x6 | B,,D,F, z[K:treble] AG | %5
 B,,D,F, z[K:treble] GF | B,,E,G, z[K:treble] FE | x6 | z3 E,3[K:treble] | x6 | %10
 B,,D,F, z[K:treble] EF | x6 | z3 E,3[K:treble] | A,,C,F, z2 A | x6 | x6 | z3 E,3[K:treble] | %17
 A,,C,F, z2 A | x6 | x6 | z3 E,3[K:treble] | x6 | B,,D,F, z[K:treble] BA | x6 | x6 | %25
 A,,2- [A,,C] A,,2 A,, | x6 | x6 | z3 E,3[K:treble] | x6 | B,,D,F, z[K:treble] BA | x6 | x6 | x6 | %34
 x6 | x6 |] %36
V:4
 x6 | x6 | x6 | x6 | x6 | x6 | x6 | x6 | x6 | x6 | x6 | x6 | x6 | x6 | x6 | x6 | x6 | x6 | x6 | %19
 x6 | x6 | B,B,B, B,3 | x6 | B,B,B, B,3 | z A,A, A,[Bd][ce] | x6 | x6 | z2 B, B,3 | x6 | %29
 B,B,B, B,3 | x6 | B,B,B, B,3 | z A,A, A,[Bd][Be] | d2- [Ccd-e] [DBd]2 [EAc] | x6 | z2 B, B,3 |] %36

